findly-builder/apps/searchassist/src/assets/icons/grid-view.svg

<svg width="14" height="14" viewBox="0 0 14 14" fill="none" xmlns="http://www.w3.org/2000/svg">
<path fill-rule="evenodd" clip-rule="evenodd" d="M6.00005 0.800049H1.33338C1.03883 0.800049 0.800049 1.03883 0.800049 1.33338V6.00005C0.800049 6.2946 1.03883 6.53338 1.33338 6.53338H6.00005C6.2946 6.53338 6.53338 6.2946 6.53338 6.00005V1.33338C6.53338 1.03883 6.2946 0.800049 6.00005 0.800049ZM5.46672 1.86672V5.46672H1.86672V1.86672H5.46672Z" fill="#202124"/>
<path fill-rule="evenodd" clip-rule="evenodd" d="M12.6667 0.800049H8.00005C7.7055 0.800049 7.46672 1.03883 7.46672 1.33338V6.00005C7.46672 6.2946 7.7055 6.53338 8.00005 6.53338H12.6667C12.9613 6.53338 13.2 6.2946 13.2 6.00005V1.33338C13.2 1.03883 12.9613 0.800049 12.6667 0.800049ZM12.1334 1.86672V5.46672H8.53338V1.86672H12.1334Z" fill="#202124"/>
<path fill-rule="evenodd" clip-rule="evenodd" d="M1.33338 7.46672H6.00005C6.2946 7.46672 6.53338 7.7055 6.53338 8.00005V12.6667C6.53338 12.9613 6.2946 13.2 6.00005 13.2H1.33338C1.03883 13.2 0.800049 12.9613 0.800049 12.6667V8.00005C0.800049 7.7055 1.03883 7.46672 1.33338 7.46672ZM5.46672 12.1334V8.53338H1.86672V12.1334H5.46672Z" fill="#202124"/>
<path fill-rule="evenodd" clip-rule="evenodd" d="M12.6667 7.46672H8.00005C7.7055 7.46672 7.46672 7.7055 7.46672 8.00005V12.6667C7.46672 12.9613 7.7055 13.2 8.00005 13.2H12.6667C12.9613 13.2 13.2 12.9613 13.2 12.6667V8.00005C13.2 7.7055 12.9613 7.46672 12.6667 7.46672ZM12.1334 8.53338V12.1334H8.53338V8.53338H12.1334Z" fill="#202124"/>
</svg>

<svg width="14" height="14" fill="none" xmlns="http://www.w3.org/2000/svg"><path fill-rule="evenodd" clip-rule="evenodd" d="M6 .8H1.333a.533.533 0 0 0-.533.533V6c0 .295.239.533.533.533H6A.533.533 0 0 0 6.533 6V1.333A.533.533 0 0 0 6 .8Zm-.533 1.067v3.6h-3.6v-3.6h3.6ZM12.667.8H8a.533.533 0 0 0-.533.533V6c0 .295.239.533.533.533h4.667A.533.533 0 0 0 13.2 6V1.333A.533.533 0 0 0 12.667.8Zm-.534 1.067v3.6h-3.6v-3.6h3.6Zm-10.8 5.6H6c.295 0 .533.239.533.533v4.667A.533.533 0 0 1 6 13.2H1.333a.533.533 0 0 1-.533-.533V8c0-.295.239-.533.533-.533Zm4.134 4.666v-3.6h-3.6v3.6h3.6Zm7.2-4.666H8A.533.533 0 0 0 7.467 8v4.667c0 .294.239.533.533.533h4.667a.533.533 0 0 0 .533-.533V8a.533.533 0 0 0-.533-.533Zm-.534 1.066v3.6h-3.6v-3.6h3.6Z" fill="#202124"/></svg>
